X:1
T:Рондо
T:Rondo capriccioso
T:C. Saint-Saens
%%score { 1 | 2 }
L:1/8
Q:1/4=71
M:2/4
K:C
V:1 treble nm="Piano" snm="Pno."
V:2 bass 
V:1
"^Adagio" !arpeggio![B,Be]4 | !arpeggio![Ada]4 | !arpeggio![Cce]4 | (((e A3/2))) (E/>A/c/4e/4 | %4
 f c3/2) (F/>A/c/4f/4 | a3/2g/4f/4 e/) z/ c/ z/ | !arpeggio![Ada]4 | (a c3/2) (F/>A/c/4f/4 | %8
 e ^G3/2) (D/>E/G/4d/4 | c3/2B/4A/4 ^GA | B2-) (5:4:5B/(c/d/^d/e/ | e A3/2) (D/>A/^c/4e/4 | %12
 fA) z/ (D/-(5:4:5D/4F/4A/4d/4f/4 | a3/2g/4f/4 e/) z/ c/ z/ | !arpeggio![Bdb]4 | %15
 (f A3/2) (F/>A/c/4f/4 | e ^G3/2) (D/>E/G/4d/4 | c (3c/B/A/ _B^G | A2) (3(A/c/e/(3^G/B/e/ | %19
 (3B/d/e/(3A/c/e/ (3c/e/f/(3d/f/g/) | (^ge) (=g(3f/e/d/ | ec) (ed/4c/4B/4d/4 | %22
 c/B/A) (3(A,/C/E/(3^G,/B,/E/ | (3B,/D/E/(3A,/C/E/ (3C/E/A/(3D/F/B/) | (^GE) (=G(3F/E/D/ | %25
 EC) (E D/4C/4B,/4D/4 | EC B,-) (B,/4A,/4^G,/4A,/4 | ^G,/4B,/4E/4^G/4 A3) | EE- (3E/(F/E/(3D/C/D/ | %29
 E2-) (3E/(F/E/(3D/C/D/ | E4) | E2{DCE} D2{CB,D} | C2{B,A,C} B,2{A,G,B,} | %33
[M:6/8]!f![Q:1/4=144]"^Allegro" [ec'e']4 z2 | z6 | z6 | z2 z(({e'f')} e'^d'e' | .d') z .c'3 b- | %38
 b2 a(({ab)} a^ga | .g) z .f3 e- | e2 d({e} d^cd | .c) z _B3 (A- | A^GB) z (D/E/F) | %43
 z (D/E/F) z (E/F/E/D/ | C/D/C/B,/A,)({e'f'} e'^d'e' | .d') z .c'3 b- | b2 a({ab} a^ga | %47
 .g) z .f3 e- | e2 ^d({e} d^^cd | b) z g3 e- | e2 c z (c/d/e) | z (c/d/e) z (^D/E/^F/G/ | %52
 E2) z({e^f} e^de | .a) z .a2 z a- | a(g/f/e)({ef} e^de | .f) z .f2 z f- | f(e/d/c)({cd} cBc | %57
 .e) z .e2 z e- | e(d/c/G) z (E/F/G/A/ | F/G/A/B/c) z B,>F | F2 E({ef} e^de | .a) z .a2 z a- | %62
 a(g/f/e)({ef} e^de | .f) z .f2 z f- | f(e/d/c)({cd} cBc | .e) z .e2 z e- | e(d/c/G) z (E/F/G/A/ | %67
 F/G/A/B/c) z B,>B, | C3 z g>g | (a2{b)a} g z e>e | (f2 e) z c>c | (d2 c) z (E/F/A/E/ | %72
 F G,2) z d>d | (e2 d) z B>B | (c2 B) z (3(B/d/f/a) | z (3(B/d/^f/a) z (3(B/d/f/(3a/g/f/) | %76
 ee'C z g>g | (a2{b)a} g z e>e | (f2 e) z c>c | (d2 c) z E/F/G/E/ | F ^G,2 z d>d | (e2 d) z B>B | %82
 (d2 c) z (3(E/A/c/e) | z (3(c/e/a/c') z ^D>D | E3({e'f'} e'^d'e' | .d') z .c'3 b- | %86
 b2 a({ab} a^ga | .g) z .f3 e- | e2 d({e} d^cd | .c) z _B3 (A- | A^GB) z (D/E/F) | %91
 z (D/E/F) z (E/F/E/D/ | C/D/C/B,/A,)({e'f'} e'^d'e' | .d') z .c'3 b- | b2 (a{ab} a^ga | %95
 .g) z .f3 e- | e2 (d{e} d^cd | .c) z _B3 A | [Acea] z A [Aa][Aa]/[Aa]/[Aa]/ z/ | %99
 [cc'][Bb][Aa] [Gg][Ff][Ee] | [Gg]/[Ff]/[Ee]E [^D^d][Ee]/[Ee]/[Ee]/[Ee]/ | %101
 [Gg][Ff][Ee] [Dd][Cc]B, | [Cc]/[B,B]/A z [Bd^g]3- | [Bdg] z2 [Bd^g]3 | [Bd^g] z [CEG] (E/D/C)C | %105
 (E/D/C)[CEG] (E/D/C)[C^FA] | [GBdg] z2 [Aa][Aa]/[Aa]/[Aa]/ z/ | [cc'][Bb][Aa] [Gg][Ff][Ee] | %108
 [Gg]/[Ff]/[Ee]E [^D^d][Ee]/[Ee]/[Ee]/[Ee]/ | [Gg][Ff][Ee] [Dd][Cc]B, | [Cc]/[B,B]/A z [Bd^g]3- | %111
 [Bdg] z2 [Bd^g]3 | [Bd^g] z [CEG] (E/D/C)C | (E/D/C)[CEG] (E/D/C)[C^FA] | [CEG]6 | %115
 !arpeggio![EAe]6 |[M:2/4] z2[Q:1/4=92]"^Andante" e>(e | f/g/f/e/ d2- | d _A3) | (_A2 G2) | %120
 z (c2 E) | (F/G/F/E/ D2-) | D (F2 E) | (D2 C2) | z2 e>(e | f/g/f/e/ d2- | d _A3) | (_A2 G2) | %128
 z (c2 E) | (^F/G/F/E/ ^D2-) | D (A2 ^G) | (^F2 E2) | z2 [e^g]/[eg]/[eg]/[eg]/ | %133
 ([^fa]/[^gb]/[fa]/[eg]/ [^df]2- | [df] [Ac]3) | ([Ac]2 [^GB]2-) | [GB]2 (^G/B/e/g/ | %137
 a/b/a/^g/ [^fa]2-) | [fa] ([ac']2 [^gb]) | ([^fa]2 [e^g]2-) | [eg]2 (^G/B/d/f/ | %141
 d'/e'/d'/^c'/ [ec']2-) | [ec'] [ge']2 [ge'] | ([ge']2 [^f^d']2-) | [fd']2 (3(^e^fg | %145
 ^f/a/a/c'/ c'2- | c'2) ^D>D |[M:6/8][Q:1/4=144]"^Allegro" [Ee]3!f!({e'f'} e'^d'e' | %148
 .d') z .c'3 b- | b2 (a{ab} a^ga | .g) z .f3 e- | e2 (d{e} d^cd | .c) z _B3 (A- | A^GB) z (D/E/F) | %154
 z (D/E/F) z (E/F/E/D/ | C/D/C/B,/A,)({e'f'} e'^d'e' | .d') z .c'3 b- | b2 (a{ab} a^ga | %158
 .g) z .f3 e- | e2 (^d{e} d^^cd | b) z g3 e- | e2 c z (c/d/e) | z (c/d/e) z (^D/E/^F/G/ | %163
 E2) z({e^f} e^de | .a) z .a2 z a- | a(g/f/e)({ef} e^de | .f) z .f2 z f- | f(e/d/c)({cd} cBc | %168
 .e) z .e2 z e- | e(d/c/G) z (E/F/G/A/ | F/G/A/B/c) z B,>F | (F2 E)({ef} e^de | .a) z .a2 z a- | %173
 a(g/f/e)({ef} e^de | .f) z .f2 z f- | f(e/d/c)({cd} cBc | .e) z .e2 z e- | e(d/c/G) z (E/F/G/A/ | %178
 F/G/A/B/c) z (D/E/F/G/ | F/G/A/B/c) !arpeggio![Fcf]3 | !arpeggio![EBe]6 | [EAe]6 |] %182
V:2
!mp! !arpeggio![B,,E,G,]4 | !arpeggio![A,,D,A,]4 | !arpeggio![C,E,A,]4 | %3
 !arpeggio![C,A,C]2 [E,A,]2 | !arpeggio![C,A,C]2 [F,A,]2 | !arpeggio![C,A,C]2 [E,A,]2 | %6
 !arpeggio![F,,_B,,F,]4 | !arpeggio![A,,F,A,]2 [C,F,]2 | !arpeggio![B,,E,B,]2 [E,^G,]2 | %9
 !arpeggio![A,,D,A,]2 [B,,E,]2 | !arpeggio![B,,^G,B,]2 [E,B,]2 | !arpeggio![A,,C,G,]2 [A,,D,F,]2 | %12
 !arpeggio![C,A,C]2 [D,A,]2 | !arpeggio![C,F,C]2 [E,B,]2 | !arpeggio![B,,^F,B,]4 | %15
 !arpeggio![C,A,C]2 [F,A,]2 | !arpeggio![B,,E,B,]2 [E,^G,]2 | !arpeggio![C,D,A,]2 [E,E]2 | %18
 !arpeggio![E,A,C]2 [E,A,][E,B,] | [E,B,][E,B,] [E,C][E,C] | [E,E]2 [E,A,]2 | [E,E]2 [E,A,]2 | %22
 !arpeggio![E,A,C]2 [A,,E,][B,,E,] | [B,,E,][B,,E,] [C,E,][C,E,] | [E,,E,]2 [B,,E,]2 | %25
 [E,,E,]2 [B,,E,]2 | [D,,E,]2 [^G,,E,]2 | [E,,E,]2 [A,,E,A,]2 | !arpeggio![G,,B,,G,]2 [E,G,]2 | %29
 !arpeggio![B,,G,B,]2 [E,G,]2 | !arpeggio![B,,E,G,]4 | [G,,E,G,]2 [F,,D,F,]2 | %32
 [E,,C,E,]2 [B,,E,G,]2 |[M:6/8] [C,E,G,C] z2 [E,A,C] z2 | [E,A,C] z2 [E,A,C] z2 | %35
 [E,A,C] z2 [E,A,C] z2 | [E,A,C] z2 [E,A,C] z2 | [E,A,C] z2 [E,A,C] z2 | [E,A,C] z2 [E,A,C] z2 | %39
 [E,A,C] z2 [E,A,C] z2 | [E,_B,D] z2 [E,B,D] z2 | [E,_B,D] z2 [E,B,D] z2 | [E,_B,D] z2 [E,B,D] z2 | %43
 [D,E,B,] z2 [B,,D,^G,] z2 | [A,,C,A,] z2 [E,A,C] z2 | [E,A,C] z2 [E,A,C] z2 | %46
 [E,A,C] z2 [E,A,C] z2 | [E,A,C] z2 [E,A,C] z2 | [^F,A,^CD] z2 [F,A,CD] z2 | %49
 [G,B,E] z2 [E,B,E] z2 | [A,CE] z2 [A,CE] z2 | [G,B,E] z2 [C,^F,^A,] z2 | %52
 [G,,E,G,] z2 [G,,E,G,] z2 | [^F,A,C]6- | [F,A,C] z2 [A,C] z2 | [^F,A,C]6- | [F,A,C] z2 [A,C] z2 | %57
 [^F,A,C]4- [F,A,C]2 | [E,G,C]3 [E,A,^C]3 | [D,F,A,]3 [B,,D,G,]3 | [G,,E,G,] z2 [G,,E,G,] z2 | %61
 [^F,A,C]4- [F,A,C]2 | [^F,A,C] z2 [A,C] z2 | [^F,A,C]6- | [F,A,C] z2 [A,C] z2 | [^F,A,C]6 | %66
 [E,G,C]3 [E,A,^C]3 | [D,F,A,]3 [B,,D,G,]- [B,,D,G,]2 | [C,E,][C,E,G,][G,,C,E,] [C,E,G,] z2 | %69
 z [C,E,G,][G,,C,E,] [C,E,G,] z2 | z [C,E,G,][G,,C,E,] [C,E,G,] z2 | %71
 z [C,E,G,][G,,C,E,] [C,E,G,] z2 | z [C,F,][G,,B,,F,] [C,F,G,] z2 | %73
 z [C,F,G,][A,,C,F,] [C,F,G,] z2 | z [D,F,G,][G,,D,F,] [D,F,B,] z2 | %75
 !arpeggio![D,^F,B,]3 !arpeggio![D,=F,B,]3 | [C,E,C][C,E,A,][G,,C,E,] [C,E,G,] z2 | %77
 z [C,E,G,][G,,C,E,] [C,E,G,] z2 | z [C,E,G,][G,,C,E,] [C,E,G,] z2 | %79
 z [C,E,G,][G,,C,E,] [C,E,G,] z2 | z [D,^F,G,][^G,,D,F,] [D,F,G,] z2 | %81
 z [D,E,B,][B,,D,E,] [D,E,B,] z2 | z [E,,A,,C,][A,,C,E,] z [A,,C,E,][C,E,A,] | %83
 ^F, [C,E,A,]2 A,, [B,,^D,^F,]2 | [E,A,C] z2 [E,A,C] z2 | [E,A,C] z2 [E,A,C] z2 | %86
 [E,A,C] z2 [E,A,C] z2 | [E,A,C] z2 [E,A,C] z2 | [E,_B,D] z2 [E,B,D] z2 | [E,_B,D] z2 [E,B,D] z2 | %90
 [E,_B,D] z2 [E,B,D] z2 | [D,E,B,] z2 [B,,D,^G,] z2 | [A,,C,A,] z2 [E,A,C] z2 | %93
 [E,A,C] z2 [E,A,C] z2 | [E,A,C] z2 [E,A,C] z2 | [E,A,C] z2 [E,A,C] z2 | %96
 [^F,A,^CD] z2 [F,A,CD] z2 | [G,,G,] z [G,,_B,,G,]3 [G,,B,,G,] | %98
 [A,,,A,,] z z [A,,C,E,A,][A,,C,E,A,]/[A,,C,E,A,]/[A,,C,E,A,]/[A,,C,E,A,]/ | %99
 [A,,,A,,][A,,,A,,][A,,,A,,] [A,,,A,,][A,,,A,,][A,,,A,,] | %100
 [A,,C,E,A,]/[A,,C,E,A,]/[A,,C,E,A,] z [A,,C,E,A,][A,,C,E,A,]/[A,,C,E,A,]/[A,,C,E,A,]/[A,,C,E,A,]/ | %101
 [A,,C,E,A,][A,,C,E,A,][A,,C,E,A,] [A,,C,E,A,][A,,C,E,A,][A,,C,E,A,] | %102
 [A,,C,E,A,]/[A,,C,E,A,]/[A,,C,E,A,]A, [E,^G,B,]3 | C/B,/A,A, [E,^G,B,]3 | %104
 C/B,/A,[A,,A,] z/ z/ z [A,,A,] | z2 [C,,C,] z2 [C,,C,] | %106
 [G,,,G,,] z z [A,,C,E,A,][A,,C,E,A,]/[A,,C,E,A,]/[A,,C,E,A,]/[A,,C,E,A,]/ | %107
 [A,,,A,,][A,,,A,,][A,,,A,,] [A,,,A,,][A,,,A,,][A,,,A,,] | %108
 [A,,C,E,A,]/[A,,C,E,A,]/[A,,C,E,A,] z [A,,C,E,A,][A,,C,E,A,]/[A,,C,E,A,]/[A,,C,E,A,]/[A,,C,E,A,]/ | %109
 [A,,C,E,A,][A,,C,E,A,][A,,C,E,A,] [A,,C,E,A,][A,,C,E,A,][A,,C,E,A,] | %110
 [A,,C,E,A,]/[A,,C,E,A,]/[A,,C,E,A,]A, [E,^G,B,]3 | (C/B,/A,)A, [E,^G,B,]3 | %112
 (C/B,/A,)[A,,A,] z/ z/ z [A,,A,] | z2 [C,,C,] z2 [C,,C,] | [C,,C,]2 z4 | !arpeggio![E,A,C]6 | %116
[M:2/4]!mp! !arpeggio![C,A,C]2 [E,A,]2 | !arpeggio![C,F,A,]2 [D,F,]2 | %118
 !arpeggio![D,G,_B,]2 [C,F,]2 | !arpeggio![_A,,F,_A,]2 [B,,_E,]2 | !arpeggio![A,,F,A,]2 [B,,E,]2 | %121
 !arpeggio![F,,D,F,]2 [D,A,]2 | !arpeggio![C,F,A,]2 [C,E,]2 | !arpeggio![E,A,C]2 [E,G,]2 | %124
 !arpeggio![C,A,C]2 [E,A,]2 | !arpeggio![C,F,A,]2 [D,F,]2 | !arpeggio![D,G,_B,]2 [C,F,]2 | %127
 !arpeggio![_A,,F,_A,]2 [B,,_E,]2 | !arpeggio![A,,F,A,]2 [B,,E,]2 | %129
 !arpeggio![^A,,^F,^A,]2 [B,,^F,]2 | !arpeggio![^G,,E,^G,]2 [G,B,]2 | %131
 !arpeggio![^C,^F,A,]2 [E,^G,]2 | !arpeggio![A,,^C,A,]2 [D,^F,]2 | !arpeggio![A,,E,A,]2 [D,^F,]2 | %134
 !arpeggio![D,A,D]2 [E,A,]2 | !arpeggio![C,E,C]2 [E,E]2 | !arpeggio![A,,^C,E,]2 [B,,E,]2 | %137
 !arpeggio![^C,E,^C]2 [A,,A,]2 | !arpeggio![^F,,D,^F,]2 [A,,E,]2 | !arpeggio![E,B,E]2 [C,A,]2 | %140
 !arpeggio![^C,E,^C]2 [E,,E,]2 | !arpeggio![A,,^C,A,]2 [E,A,]2 | !arpeggio![C,A,C]2 [E,A,]2 | %143
 !arpeggio![A,,^C,A,]2 [C,E,]2 | !arpeggio![E,,A,,E,]2 [A,,A,]2 | !arpeggio![D,^F,D]2 [A,C]2 | %146
 !arpeggio![C,D,A,]2 [A,,E,]2 |[M:6/8] !arpeggio![E,A,C]3 [E,A,C] z2 | [E,A,C] z2 [E,A,C] z2 | %149
 [E,A,C] z2 [E,A,C] z2 | [E,A,C] z2 [E,A,C] z2 | [E,_B,D] z2 [E,B,D] z2 | [E,_B,D] z2 [E,B,D] z2 | %153
 [E,_B,D] z2 [E,B,D] z2 | [D,E,B,] z2 [B,,D,^G,] z2 | [A,,C,A,] z2 [E,A,C] z2 | %156
 [E,A,C] z2 [E,A,C] z2 | [E,A,C] z2 [E,A,C] z2 | [E,A,C] z2 [E,A,C] z2 | %159
 [^F,A,^CD] z2 [F,A,CD] z2 | [G,B,E] z2 [E,B,E] z2 | [A,CE] z2 [A,CE] z2 | %162
 [G,B,E] z2 [C,^F,^A,] z2 | [G,,E,G,] z2 [G,,E,G,] z2 | [^F,A,C]6- | [F,A,C] z2 [A,C] z2 | %166
 [^F,A,C]6- | [F,A,C] z2 [A,C] z2 | [^F,A,C]6 | [E,G,C]3 [E,A,^C]3 | [D,F,A,]3 [B,,D,G,]3 | %171
 [G,,E,G,] z2 [G,,E,G,] z2 | [^F,A,C]6- | [F,A,C] z2 [A,C] z2 | [^F,A,C]6- | [F,A,C] z2 [A,C] z2 | %176
 [^F,A,C]6 | [E,G,C]3 [E,A,^C]3 | [D,F,A,]3 [B,,D,G,]3 | [D,F,A,]3 !arpeggio![C,F,A,]3 | %180
 !arpeggio![B,,F,B,]6 | [C,E,A,]6 |] %182

